X: 061
T: Miss Ibbitson of St Anthon's Reel
C: Mr Greenwell
R: reel
M: C|
L: 1/8
N: The name in the title is barely legible; "Ibbitson" is the only reading that matches real names.
Z: 2010 John Chambers <jc:trillian.mit.edu>
B: Abraham Mackintosh "A Collection of Strathspeys, Reels, Jigs &c.", Newcastle, after 1797, p.6
F: http://imslp.info/files/imglnks/usimg/a/a8/IMSLP80796-PMLP164326-Abraham_Mackintosh_coll.pdf
K: C
V: 1
d | c2GF EGcG | AcBd cG EC | c2GF EGcG | AcBd [1 cfe :|2 c3 :|
g | ecge fgaf | edce dBGf | ecge fgaf | edcB c3 ||
g | ecge fgaf | edce dB GF | EGcE FAGf | edcB cfe |]
V: 2 clef=bass middle=d
z | c2B2 c2e2 | f2d2 e2c2 | c'2b2 c'2e2 | f2g2 [1 c'2c :|2 c'3 :|
z | c'2_b2 a2f2 | c'2c2 g2=b2 | c'2_b2 a2f2 | g2G2 c2=B2 ||
    c2 c'_b a2f2 | c'2c2 g2=b2 | c'2c2 f2ef | g2G2 c3 |]

%%sep 2 1 500

